X:1
T:Cranbrook, SM
T:Cranbrook, SM
T:Attributed to Thomas Clark, 1812
T:Public Domain Courtesy of the Cyber Hymnal™
C:Attributed to Thomas Clark, 1812
Z:Public Domain
Z:Courtesy of the Cyber Hymnal™
%%score ( 1 2 ) ( 3 4 )
L:1/8
Q:1/4=150
M:2/2
K:C
V:1 treble 
V:2 treble 
V:3 bass 
V:4 bass 
V:1
 [Ec]4 G3 [FA] | ([EG]2 [DF]2) ([CE]2 [B,D]2) | C6 [EG]2 | ([Ec]2 [GB]2) ([FA]2 [EG]2) | %4
 (A2 G2) ([B,F]2 [CE]2) | ([CE]4 [B,D]2) z2 | G4 G3 A | B2 G2 A2 B2 | [Gc]4 E3 F | G2 E2 G2 A2 | %10
 d4 [^Fd]3 [Fd] x2 | [GB]2 [Dd]2 [B,D]2 [D^F]2 | [DG]6 G2 | [Ec]3 [Ec] [Ec]2 [DB]2 | [Ec]6 [Gd]2 | %15
 [Ge]3 [Ge] [Ge]2 [Gd]2 | [Ge]6 [Ge]2 | [Fd]4 c4 | [Ec]4 B4 | [Ec]8 |] %20
V:2
 x4 G3 x | x8 | C6 x2 | x8 | C4 x4 | x8 | x8 | x8 | x8 | x8 | G2 G2 x6 | x8 | x6 G2 | x8 | x8 | %15
 x8 | x8 | x4 (G2 F2) | x4 (D2 F2) | x8 |] %20
V:3
 [C,G,]4 [E,C]3 [F,C] | (C2 G,2- G,2) F,2 | [C,E,]6 [C,C]2 | [C,C]4 [C,C]4 | C4 G,4 | [G,,G,]6 z2 | %6
 B,4 B,3 C | D2 B,2 C2 D2 | [C,E]4 C,3 D, | E,2 C,2 E,2 ^F,2 | B,4 G,2 [D,A,]3 [D,A,] | %11
 [G,B,]2 [B,,G,]2 [D,G,]2 [D,C]2 | [G,B,]6 z2 | z4 z2 [G,D]2 | [C,C]3 [C,C] [E,C]2 [G,B,]2 | %15
 C6 [G,B,]2 | C3 C C2 [C,G,]2 | [G,B,]4 ([E,G,]2 [F,A,]2) | G,4 [G,,G,]4 | [C,G,]8 |] %20
V:4
 x8 | G,4 G,,4 | x8 | x8 | (F,2 E,2) (D,2 C,2) | x8 | x8 | x8 | x8 | x8 | G,2 x8 | x8 | x8 | x8 | %14
 x8 | C6 x2 | C3 C C2 x2 | x8 | G,4 x4 | x8 |] %20

